icons/communication/commentheart-24.svg

<svg width="24" height="24" viewBox="0 0 24 24" fill="none" xmlns="http://www.w3.org/2000/svg">
<path fill-rule="evenodd" clip-rule="evenodd" d="M9.9507 5.50114C8.42315 5.50157 7.00048 6.84421 7 8.62442C6.9995 10.4894 8.31768 11.9674 9.34941 12.8647L9.35147 12.8665C9.96698 13.3976 10.6308 13.8688 11.3328 14.273C11.3992 14.3112 11.4662 14.3482 11.5338 14.3842L11.5375 14.3862C11.6801 14.461 11.8381 14.5 11.9984 14.5C12.146 14.5 12.2917 14.4668 12.4251 14.4031C12.4396 14.3965 12.4539 14.3894 12.468 14.3818C12.5324 14.347 12.5981 14.3106 12.664 14.2728L12.6649 14.2723C12.7843 14.2035 12.9539 14.1032 13.1566 13.9736C13.6785 13.6408 14.1763 13.2702 14.6462 12.8646L14.6481 12.863C15.6801 11.9662 16.9995 10.487 17 8.62203C17.0005 6.84142 15.5781 5.49957 14.051 5.5C13.2419 5.50023 12.5392 5.81003 12.0007 6.31485C11.4625 5.81026 10.7596 5.50092 9.9507 5.50114ZM8.43179 8.62402C8.43205 7.6513 9.21351 6.96344 9.9503 6.96323C10.4687 6.96309 10.8999 7.1943 11.2156 7.59184C11.6158 8.09571 12.3843 8.09576 12.785 7.59154C13.1012 7.19361 13.5323 6.96224 14.0506 6.96209C14.787 6.96189 15.5685 7.64931 15.5682 8.62243C15.5679 9.79398 14.7053 10.8938 13.7214 11.749C13.3041 12.109 12.8613 12.4385 12.398 12.734C12.2379 12.8364 12.1013 12.918 11.9988 12.9776C11.3892 12.6234 10.8128 12.2127 10.277 11.7504C9.29302 10.8944 8.43148 9.79556 8.43179 8.62402Z" fill="black"/>
<path fill-rule="evenodd" clip-rule="evenodd" d="M2.75 2C1.7835 2 1 2.7835 1 3.75V16.25C1 17.2165 1.7835 18 2.75 18H5V20.7183C5 21.8076 6.29633 22.3757 7.09724 21.6374L10.9712 18.0662C11.0173 18.0236 11.0778 18 11.1406 18H21.25C22.2165 18 23 17.2165 23 16.25V3.75C23 2.7835 22.2165 2 21.25 2H2.75ZM2.5 3.75C2.5 3.61193 2.61193 3.5 2.75 3.5H21.25C21.3881 3.5 21.5 3.61193 21.5 3.75V16.25C21.5 16.3881 21.3881 16.5 21.25 16.5H11.1406C10.7011 16.5 10.2776 16.6654 9.95446 16.9633L6.5 20.1478V17.5C6.5 16.9477 6.05228 16.5 5.5 16.5H2.75C2.61193 16.5 2.5 16.3881 2.5 16.25V3.75Z" fill="black"/>
</svg>

<svg xmlns="http://www.w3.org/2000/svg" width="24" height="24"><path fill-rule="evenodd" d="M9.95 5.501C8.424 5.501 7 6.844 7 8.624c0 1.865 1.318 3.343 2.35 4.24l.001.002a12.846 12.846 0 002.183 1.518l.003.002a.992.992 0 00.931-.004c.064-.035.13-.071.196-.11a12.87 12.87 0 001.981-1.408l.003-.001C15.68 11.966 17 10.487 17 8.622c0-1.78-1.422-3.122-2.949-3.122-.81 0-1.512.31-2.05.815A2.955 2.955 0 009.95 5.5zM8.433 8.624c0-.973.782-1.66 1.518-1.66.519 0 .95.23 1.266.628.4.504 1.168.504 1.569 0 .316-.398.747-.63 1.266-.63.736 0 1.518.687 1.517 1.66 0 1.172-.863 2.272-1.847 3.127A11.469 11.469 0 0112 12.978a11.412 11.412 0 01-1.722-1.228c-.984-.856-1.846-1.954-1.845-3.126z"/><path fill-rule="evenodd" d="M2.75 2A1.75 1.75 0 001 3.75v12.5c0 .966.784 1.75 1.75 1.75H5v2.718c0 1.09 1.296 1.658 2.097.92l3.874-3.572a.25.25 0 01.17-.066H21.25A1.75 1.75 0 0023 16.25V3.75A1.75 1.75 0 0021.25 2H2.75zM2.5 3.75a.25.25 0 01.25-.25h18.5a.25.25 0 01.25.25v12.5a.25.25 0 01-.25.25H11.14c-.439 0-.862.165-1.186.463L6.5 20.148V17.5a1 1 0 00-1-1H2.75a.25.25 0 01-.25-.25V3.75z"/></svg>
